X:547
%%etbk:tnset id:151,pos:2,rep:3x,ant:Into 1xA nur Guit. B-Teil Box erst ab 2.x
%%etbk:pldat 2014-04-24T17:51,2014-04-24T17:48,2014-04-23T16:52,2014-04-16T08:43,2014-04-12T11:04,2014-04-08T17:19,2014-04-06T10:17,2014-04-03T18:59,2014-03-06T19:23,2014-03-05T18:37,2014-03-03T18:03,2014-03-02T14:46,2014-02-23T09:56,2014-01-30T17:50,2014-01-29T15:41,2014-01-27T18:43,2014-01-26T15:05,2014-01-18T15:59,2014-01-16T18:35,2014-01-12T13:58,2014-01-08T16:22,2014-01-03T16:37,2014-01-02T10:52,2013-12-28T13:26,2013-12-26T13:22,2013-12-09T18:13
T: Crooked Still
R: reel
M: 4/4
R: reel
L: 1/8
K: Dmaj
%%score (M1) (M2) 
V:M1  clef=treble  
V:M2  clef=treble   
%            End of header, start of tune body:
% 1 
[V:M1] F|: "em"!1!G!2!B!3!d!5!f  !4!e2dB | "D"!3!d!2!B!4!e!5!f e!3!dd!1!F | "em"!1!GBd!5!f !4!e2d!2!B | "D"!1!d!5!afe edd2 | 
[V:M2]  z|:   !2!!5![E6A]     !1!!5![D2A]   |  -!1!!5![D4A] z4 |  z8 | z8 |
% 5 
[V:M1] "em"!1!GBdf e2dB | "D"dBef e!3!d (3Bc!1!d | "G"!5!affe e!1!d!2!B!1!d | "A"dfedd2z2:|
[V:M2]      !1!!3![EB,] z2 !1!!3![EB,]z2 !1!!2![D2A,]        |  -!1!!2![D6A,] z2  |  !1!!3![DG,] z2 !1!!3![DG,]z2 !1!!2![E2A,]        |  -!1!!2![E6A,] z2  :|
% 9 
[V:M1] |: "G"z!1!G!2!B!3!d !5!a!3!d!5!g!4!f | "em"!3!d!1!GBd adgf | "bm"!3!d!1!GBd f2ed | "A"!3!de!1!A!2!A !1!AB!3!d2 |
[V:M2] |: !1!!4![D8G] |  !2!!5![E8A] |  !1!!4![B,8F] | z8 |
% 13 
[V:M1]  "G"zGBd adgf | "em"dGBd adgf | "bm"dGBd f2ed |1 "A"deAA ABd2:|2 "A"deAA dcBA||
[V:M2]  !1!!4![D8G] |  !2!!5![E8A] |  !1!!4![B,8F]  |1 z8 :|2  z8||


